Yaru++/apps/16/pokerth.svg

<svg height="16" width="16" xmlns="http://www.w3.org/2000/svg">
  <path d="m8 0c-.589478 0-1.1622967.067624-1.7148438.1875v1.0527344a7 7 0 0 1 1.8066407-.2402344 7 7 0 0 1 1.6230469.1992188v-1.0117188c-.5525471-.1198757-1.1253658-.1875-1.7148438-.1875zm-4.3125 1.2617188c-.9745809.6234033-1.8023777 1.4512003-2.4257812 2.4257812l.7890624.7890625a7 7 0 0 1 2.4023438-2.4492187zm8.625 0-.697266.6972656a7 7 0 0 1 2.449219 2.4023437l.673828-.6738281c-.623403-.9745809-1.4512-1.8023779-2.425781-2.4257812zm-9.1835938 2.8496093v1.515625h1.6601563v6.2617189h1.2871094v-6.2617189h1.65625v-1.515625zm5.265625 0v7.7773439h1.2890626v-3.2968751h1.9003902v3.2968751h1.28711v-7.7773439h-1.28711v2.9648438h-1.9003902v-2.9648438zm-8.2070312 2.1738281c-.1198757.5525463-.1875 1.1253661-.1875 1.7148438s.0676243 1.1622975.1875 1.7148438h1.125a7 7 0 0 1 -.2207031-1.7148438 7 7 0 0 1 .2226562-1.7148438zm14.685547 0a7 7 0 0 1 .21875 1.7148438 7 7 0 0 1 -.222656 1.7148438h.943359c.119875-.5525464.1875-1.1253661.1875-1.7148438s-.06762-1.1622975-.1875-1.7148438zm-12.8203126 5.2363278-.7910156.791016c.6234034.974581 1.4512003 1.802378 2.4257812 2.425781l.7675781-.767578a7 7 0 0 1 -2.4023437-2.449219zm12.0097656.115235a7 7 0 0 1 -2.447266 2.402343l.697266.699219c.974581-.623403 1.802378-1.4512 2.425781-2.425781zm-7.7773438 3.117187v1.058594c.552547.119875 1.1253658.1875 1.7148438.1875s1.1622967-.06762 1.7148438-.1875v-1.011719a7 7 0 0 1 -1.6230469.199219 7 7 0 0 1 -1.8066407-.246094z" fill="#808080"/>
</svg>

<svg xmlns="http://www.w3.org/2000/svg" width="16" height="16" version="1">
 <path style="fill:#808080" d="M 8 0 C 7.410522 0 6.8377033 0.067624 6.2851562 0.1875 L 6.2851562 1.2402344 A 7 7 0 0 1 8.0917969 1 A 7 7 0 0 1 9.7148438 1.1992188 L 9.7148438 0.1875 C 9.1622967 0.0676243 8.589478 0 8 0 z M 3.6875 1.2617188 C 2.7129191 1.8851221 1.8851223 2.7129191 1.2617188 3.6875 L 2.0507812 4.4765625 A 7 7 0 0 1 4.453125 2.0273438 L 3.6875 1.2617188 z M 12.3125 1.2617188 L 11.615234 1.9589844 A 7 7 0 0 1 14.064453 4.3613281 L 14.738281 3.6875 C 14.114878 2.7129191 13.287081 1.8851221 12.3125 1.2617188 z M 3.1289062 4.1113281 L 3.1289062 5.6269531 L 4.7890625 5.6269531 L 4.7890625 11.888672 L 6.0761719 11.888672 L 6.0761719 5.6269531 L 7.7324219 5.6269531 L 7.7324219 4.1113281 L 3.1289062 4.1113281 z M 8.3945312 4.1113281 L 8.3945312 11.888672 L 9.6835938 11.888672 L 9.6835938 8.5917969 L 11.583984 8.5917969 L 11.583984 11.888672 L 12.871094 11.888672 L 12.871094 4.1113281 L 11.583984 4.1113281 L 11.583984 7.0761719 L 9.6835938 7.0761719 L 9.6835938 4.1113281 L 8.3945312 4.1113281 z M 0.1875 6.2851562 C 0.0676243 6.8377025 0 7.4105223 0 8 C 0 8.5894777 0.0676243 9.1622975 0.1875 9.7148438 L 1.3125 9.7148438 A 7 7 0 0 1 1.0917969 8 A 7 7 0 0 1 1.3144531 6.2851562 L 0.1875 6.2851562 z M 14.873047 6.2851562 A 7 7 0 0 1 15.091797 8 A 7 7 0 0 1 14.869141 9.7148438 L 15.8125 9.7148438 C 15.932375 9.1622974 16 8.5894777 16 8 C 16 7.4105223 15.93238 6.8377025 15.8125 6.2851562 L 14.873047 6.2851562 z M 2.0527344 11.521484 L 1.2617188 12.3125 C 1.8851222 13.287081 2.7129191 14.114878 3.6875 14.738281 L 4.4550781 13.970703 A 7 7 0 0 1 2.0527344 11.521484 z M 14.0625 11.636719 A 7 7 0 0 1 11.615234 14.039062 L 12.3125 14.738281 C 13.287081 14.114878 14.114878 13.287081 14.738281 12.3125 L 14.0625 11.636719 z M 6.2851562 14.753906 L 6.2851562 15.8125 C 6.8377032 15.932375 7.410522 16 8 16 C 8.589478 16 9.1622967 15.93238 9.7148438 15.8125 L 9.7148438 14.800781 A 7 7 0 0 1 8.0917969 15 A 7 7 0 0 1 6.2851562 14.753906 z"/>
</svg>
